svgs/light/square-virus.svg

<svg xmlns="http://www.w3.org/2000/svg" viewBox="0 0 448 512"><!--! Font Awesome Pro 6.4.2 by @fontawesome - https://fontawesome.com License - https://fontawesome.com/license (Commercial License) Copyright 2023 Fonticons, Inc. --><path d="M64 64C46.3 64 32 78.3 32 96V416c0 17.7 14.3 32 32 32H384c17.7 0 32-14.3 32-32V96c0-17.7-14.3-32-32-32H64zM0 96C0 60.7 28.7 32 64 32H384c35.3 0 64 28.7 64 64V416c0 35.3-28.7 64-64 64H64c-35.3 0-64-28.7-64-64V96zM200 208a24 24 0 1 1 0 48 24 24 0 1 1 0-48zm24 64a16 16 0 1 1 32 0 16 16 0 1 1 -32 0zM86.6 230.9c29.3 0 43.9-35.4 23.2-56.1c-9.4-9.4-9.4-24.6 0-33.9s24.6-9.4 33.9 0c20.7 20.7 56.1 6 56.1-23.2c0-13.3 10.7-24 24-24s24 10.7 24 24c0 29.3 35.4 43.9 56.1 23.2c9.4-9.4 24.6-9.4 33.9 0s9.4 24.6 0 33.9c-20.7 20.7-6 56.1 23.2 56.1c13.3 0 24 10.7 24 24s-10.7 24-24 24c-29.3 0-43.9 35.4-23.2 56.1c9.4 9.4 9.4 24.6 0 33.9s-24.6 9.4-33.9 0c-20.7-20.7-56.1-6-56.1 23.2c0 13.3-10.7 24-24 24s-24-10.7-24-24c0-29.3-35.4-43.9-56.1-23.2c-9.4 9.4-24.6 9.4-33.9 0s-9.4-24.6 0-33.9c20.7-20.7 6-56.1-23.2-56.1c-13.3 0-24-10.7-24-24s10.7-24 24-24zm62.6-50.7c8.2 28.6-4.9 60.2-30.9 74.7c26 14.5 39.1 46.1 30.9 74.7c28.6-8.2 60.2 4.9 74.7 30.9c14.5-26 46.1-39.1 74.7-30.9c-8.2-28.6 4.9-60.2 30.9-74.7c-26-14.5-39.1-46.1-30.9-74.7c-16.4 4.7-33.9 2.4-48.5-5.4c-10.8-5.7-20.1-14.5-26.2-25.5c-14.5 26-46.1 39.1-74.7 30.9z"/></svg>

<svg xmlns="http://www.w3.org/2000/svg" viewBox="0 0 448 512"><!--! Font Awesome Pro 6.1.1 by @fontawesome - https://fontawesome.com License - https://fontawesome.com/license (Commercial License) Copyright 2022 Fonticons, Inc. --><path d="M216 224C216 237.3 205.3 248 192 248C178.7 248 168 237.3 168 224C168 210.7 178.7 200 192 200C205.3 200 216 210.7 216 224zM224 280C224 266.7 234.7 256 248 256C261.3 256 272 266.7 272 280C272 293.3 261.3 304 248 304C234.7 304 224 293.3 224 280zM333.1 215.3C338.6 224.4 348.5 230.9 361.1 230.9C374.3 230.9 385.1 241.6 385.1 254.9C385.1 268.1 374.3 278.9 361.1 278.9C331.8 278.9 317.2 314.3 337.8 334.9C347.2 344.3 347.2 359.5 337.8 368.9C328.5 378.3 313.3 378.3 303.9 368.9C283.2 348.2 247.8 362.8 247.8 392.1C247.8 405.4 237.1 416.1 223.8 416.1C210.6 416.1 199.8 405.4 199.8 392.1C199.8 362.8 164.5 348.2 143.8 368.9C134.4 378.3 119.2 378.3 109.8 368.9C100.5 359.5 100.5 344.3 109.8 334.9C130.5 314.3 115.9 278.9 86.61 278.9C73.35 278.9 62.61 268.1 62.61 254.9C62.61 241.6 73.35 230.9 86.61 230.9C115.9 230.9 130.5 195.5 109.8 174.8C100.5 165.4 100.5 150.2 109.8 140.9C119.2 131.5 134.4 131.5 143.8 140.9C164.5 161.6 199.8 146.9 199.8 117.6C199.8 104.4 210.6 93.65 223.8 93.65C237.1 93.65 247.8 104.4 247.8 117.6C247.8 146.9 283.2 161.6 303.9 140.9C313.3 131.5 328.5 131.5 337.8 140.9C347.2 150.2 347.2 165.4 337.8 174.8C326 186.6 325.7 203.2 333.1 215.3H333.1zM223.8 149.3C209.4 175.3 177.8 188.4 149.2 180.2C157.3 208.8 144.2 240.4 118.2 254.9C144.2 269.3 157.3 300.9 149.2 329.6C177.8 321.4 209.4 334.5 223.8 360.5C238.3 334.5 269.9 321.4 298.5 329.6C290.3 300.9 303.4 269.3 329.4 254.9C303.4 240.4 290.3 208.8 298.5 180.2C269.9 188.4 238.3 175.3 223.8 149.3zM0 96C0 60.65 28.65 32 64 32H384C419.3 32 448 60.65 448 96V416C448 451.3 419.3 480 384 480H64C28.65 480 0 451.3 0 416V96zM32 96V416C32 433.7 46.33 448 64 448H384C401.7 448 416 433.7 416 416V96C416 78.33 401.7 64 384 64H64C46.33 64 32 78.33 32 96z"/></svg>
